X: 1
T: Girls Of Grindavik, The
M: 9/8
L: 1/8
R: slip jig
K: Ador
A2B cBA GEE | A2B ced BAG | A2B cBA Gcd | egf gdc BAG:|
|:egg dgg cgg | BGG G2A Bcd | egg dge dcB |1 cAA ABG Acd:|2 cAA ABG A2E ||
